X: 2716
T: Banks Of Lough Gowna, The
R: jig
M: 6/8
K: Aminor
|:ABA AGE|EDE CEG|AcA AGE|c2d edc|
ABA AGE|EDE CEG|cde fed|1 ecA GED:|2 ecA GAB||
|:cde gea|gea ged|cde fed|ecA GAB|
cde gea|gea ged|cde fgf|1 ecA GAB:|2 ecA GEG||

